images/steps-img.svg

<svg width="52" height="51" viewBox="0 0 52 51" fill="none" xmlns="http://www.w3.org/2000/svg">
<path d="M50.2609 36.3461V33.9999H51.1275C51.3665 34.0016 51.5955 33.9061 51.7601 33.7364C51.9073 33.5749 51.9907 33.3666 51.994 33.1499L50.4429 4.25006C50.2952 1.91091 48.3175 0.0876465 45.9281 0.0876465C43.5387 0.0876465 41.561 1.91091 41.4133 4.25006L39.8621 33.1499C39.8549 33.3815 39.9387 33.6065 40.0961 33.7791C40.2679 33.9331 40.496 34.0128 40.7287 33.9999H41.5953V36.3461L39.9573 39.5676C39.8338 39.808 39.8338 40.0918 39.9573 40.3326L45.1567 50.5325C45.199 50.6263 45.2612 50.7102 45.3387 50.7791C45.4398 50.8708 45.5617 50.938 45.6941 50.9745H46.1705C46.3034 50.938 46.4253 50.8708 46.526 50.7791C46.6038 50.7102 46.6656 50.6263 46.7079 50.5325L51.9073 40.3326C52.0309 40.0918 52.0309 39.808 51.9073 39.5676L50.2609 36.3461ZM41.6384 32.2999L42.0027 25.5H49.8534L50.2609 32.2999H41.6384ZM43.1464 4.2928C43.1464 2.7858 44.3917 1.56393 45.9281 1.56393C47.4645 1.56393 48.7097 2.7858 48.7097 4.2928L49.7582 23.8427H42.0979L42.1931 22.1427H47.0198C47.4987 22.1427 47.8863 21.7621 47.8863 21.2927C47.8863 20.8229 47.4987 20.4427 47.0198 20.4427H42.2799L43.1464 4.2928ZM48.5278 33.9999V35.6999H43.3284V33.9999H48.5278ZM46.7946 46.5461V40.7999H47.6612C48.1398 40.7999 48.5278 40.4193 48.5278 39.9499C48.5278 39.4805 48.1398 39.0999 47.6612 39.0999H44.195C43.7164 39.0999 43.3284 39.4805 43.3284 39.9499C43.3284 40.4193 43.7164 40.7999 44.195 40.7999H45.0615V46.5461L41.6993 39.9499L42.9992 37.3999H48.857L50.1568 39.9499L46.7946 46.5461Z" fill="#FFBB01"/>
<path d="M29.4625 11.0501C29.9411 11.0501 30.3291 10.6695 30.3291 10.2001C30.3291 9.73069 29.9411 9.3501 29.4625 9.3501H6.93181C6.45325 9.3501 6.06525 9.73069 6.06525 10.2001V13.6001C6.06525 14.0695 6.45325 14.4501 6.93181 14.4501H29.4625C29.9411 14.4501 30.3291 14.0695 30.3291 13.6001C30.3291 13.1307 29.9411 12.7501 29.4625 12.7501H7.79838V11.0501H29.4625Z" fill="#FFBB01"/>
<path d="M30.3299 18.6999C30.3299 18.2304 29.9419 17.8499 29.4634 17.8499H10.3989C9.92036 17.8499 9.53235 18.2304 9.53235 18.6999C9.53235 19.1693 9.92036 19.5499 10.3989 19.5499H29.4634C29.9419 19.5499 30.3299 19.1693 30.3299 18.6999Z" fill="#FFBB01"/>
<path d="M5.19879 22.9499C5.19879 23.4193 5.5868 23.7999 6.06536 23.7999H19.9304C20.409 23.7999 20.797 23.4193 20.797 22.9499C20.797 22.4804 20.409 22.0999 19.9304 22.0999H6.06536C5.5868 22.0999 5.19879 22.4804 5.19879 22.9499Z" fill="#FFBB01"/>
<path d="M25.1305 22.0999C24.652 22.0999 24.264 22.4804 24.264 22.9499C24.264 23.4193 24.652 23.7999 25.1305 23.7999H28.5963C29.0748 23.7999 29.4628 23.4193 29.4628 22.9499C29.4628 22.4804 29.0748 22.0999 28.5963 22.0999H25.1305Z" fill="#FFBB01"/>
<path d="M17.3307 27.1998C17.3307 26.7304 16.9427 26.3499 16.4641 26.3499H6.06536C5.5868 26.3499 5.19879 26.7304 5.19879 27.1998C5.19879 27.6692 5.5868 28.0498 6.06536 28.0498H16.4641C16.9427 28.0498 17.3307 27.6692 17.3307 27.1998Z" fill="#FFBB01"/>
<path d="M16.4641 31.4499C16.4641 30.9804 16.0761 30.5999 15.5976 30.5999H6.06536C5.5868 30.5999 5.19879 30.9804 5.19879 31.4499C5.19879 31.9193 5.5868 32.2998 6.06536 32.2998H15.5976C16.0761 32.2998 16.4641 31.9193 16.4641 31.4499Z" fill="#FFBB01"/>
<path d="M6.06525 34.8499C5.58675 34.8499 5.19879 35.2304 5.19879 35.6999C5.19879 36.1693 5.58675 36.5499 6.06525 36.5499H12.1305C12.609 36.5499 12.9969 36.1693 12.9969 35.6999C12.9969 35.2304 12.609 34.8499 12.1305 34.8499H6.06525Z" fill="#FFBB01"/>
<path d="M33.7961 0H2.5997C1.16402 0 0 1.14177 0 2.54999V41.6498C0 43.058 1.16402 44.1998 2.5997 44.1998H17.3313C17.8099 44.1998 18.1979 43.8192 18.1979 43.3498C18.1979 42.8804 17.8099 42.4998 17.3313 42.4998H2.5997C2.12114 42.4998 1.73313 42.1192 1.73313 41.6498V7.64997H34.6626V41.6498C34.6626 42.1192 34.2746 42.4998 33.7961 42.4998H31.1964C30.7178 42.4998 30.3298 42.8804 30.3298 43.3498C30.3298 43.8192 30.7178 44.1998 31.1964 44.1998H33.7961C35.2317 44.1998 36.3958 43.058 36.3958 41.6498V2.54999C36.3958 1.14177 35.2317 0 33.7961 0ZM1.73313 5.94997V2.54999C1.73313 2.08058 2.12114 1.69999 2.5997 1.69999H33.7961C34.2746 1.69999 34.6626 2.08058 34.6626 2.54999V5.94997H1.73313Z" fill="#FFBB01"/>
<path d="M24.2636 31.4497C22.8281 31.4497 21.6642 32.5915 21.6642 33.9997C21.6642 35.4079 22.8281 36.5497 24.2636 36.5497C25.6991 36.5497 26.863 35.4079 26.863 33.9997C26.863 32.5915 25.6991 31.4497 24.2636 31.4497ZM24.2636 34.8497C23.7851 34.8497 23.3972 34.4691 23.3972 33.9997C23.3972 33.5303 23.7851 33.1497 24.2636 33.1497C24.7421 33.1497 25.1301 33.5303 25.1301 33.9997C25.1301 34.4691 24.7421 34.8497 24.2636 34.8497Z" fill="#FFBB01"/>
<path d="M31.1965 33.9999C31.1952 33.0553 30.6621 32.1883 29.8099 31.7475C30.0934 30.8444 29.8446 29.862 29.1638 29.1938C28.4825 28.526 27.481 28.2819 26.5603 28.56C26.1092 27.7266 25.2261 27.2053 24.2639 27.2053C23.3017 27.2053 22.4187 27.7266 21.9676 28.56C21.0469 28.2819 20.0454 28.526 19.3641 29.1938C18.6833 29.862 18.4345 30.8444 18.718 31.7475C17.8679 32.1899 17.3369 33.0561 17.3369 33.9999C17.3369 34.9437 17.8679 35.8103 18.718 36.2523C18.4345 37.1534 18.6812 38.1341 19.359 38.8023C19.5283 38.9679 19.7208 39.1082 19.9311 39.219V50.1498C19.9328 50.4931 20.1448 50.8014 20.4685 50.9318C20.7909 51.065 21.1637 50.9944 21.4129 50.7533L24.2639 47.9485L27.115 50.7533C27.2783 50.9127 27.5 51.0011 27.7302 50.9998C27.844 51.0027 27.9566 50.9795 28.0594 50.9318C28.3831 50.8014 28.5951 50.4931 28.5968 50.1498V39.2273C28.8071 39.1165 28.9996 38.9762 29.1688 38.811C29.8467 38.1424 30.0934 37.1621 29.8099 36.261C30.6646 35.8186 31.1986 34.9478 31.1965 33.9999ZM24.8792 46.1464C24.7167 45.9854 24.495 45.8949 24.2639 45.8949C24.0329 45.8949 23.8112 45.9854 23.6487 46.1464L21.6642 48.1012V39.5166L21.9676 39.4398C22.4187 40.2736 23.3017 40.7945 24.2639 40.7945C25.2261 40.7945 26.1092 40.2736 26.5603 39.4398L26.8636 39.5166V48.1012L24.8792 46.1464ZM28.5968 34.8499H28.4495C28.0966 34.8482 27.7776 35.0566 27.6435 35.377C27.5102 35.6953 27.5855 36.061 27.8343 36.3034L27.9384 36.4055C28.2744 36.7371 28.2744 37.2725 27.9384 37.6041C27.8428 37.7025 27.7234 37.7755 27.5914 37.8166H27.4615C27.1886 37.8581 26.9119 37.7697 26.7164 37.5784L26.6123 37.4763C26.3644 37.2314 25.9899 37.1575 25.6649 37.2899C25.3395 37.4223 25.1284 37.7348 25.1305 38.0801V38.2499C25.1305 38.7193 24.7425 39.0999 24.2639 39.0999C23.7854 39.0999 23.3974 38.7193 23.3974 38.2499V38.1055C23.3991 37.7593 23.1867 37.4464 22.86 37.3148C22.7555 37.2741 22.6434 37.2542 22.5308 37.2555C22.3006 37.2542 22.0789 37.343 21.9156 37.502L21.8115 37.6041C21.616 37.7954 21.3393 37.8838 21.0664 37.8419H20.9365C20.8044 37.8012 20.6851 37.7282 20.5895 37.6294C20.2535 37.2978 20.2535 36.7624 20.5895 36.4308L20.7025 36.3291C20.9513 36.0863 21.0266 35.7206 20.8929 35.4023C20.7588 35.0823 20.4401 34.8736 20.0872 34.8756H19.9311C19.4526 34.8756 19.0645 34.495 19.0645 34.0256C19.0645 33.5558 19.4526 33.1756 19.9311 33.1756H20.0784C20.4312 33.1773 20.7503 32.9685 20.8844 32.6485C21.0177 32.3302 20.9424 31.9646 20.6936 31.7218L20.5895 31.6201C20.2497 31.2889 20.248 30.7506 20.5853 30.4173C20.9229 30.084 21.4717 30.0819 21.8115 30.4131L21.9156 30.5235C22.1627 30.7676 22.5359 30.8415 22.86 30.7103C23.1867 30.5787 23.3991 30.2662 23.3974 29.9201V29.7499C23.3974 29.2805 23.7854 28.8999 24.2639 28.8999C24.7425 28.8999 25.1305 29.2805 25.1305 29.7499V29.8944C25.1288 30.2409 25.3412 30.5534 25.6679 30.685C25.992 30.8157 26.3652 30.7423 26.6123 30.4978L26.7164 30.3961C27.0536 30.0629 27.6028 30.0608 27.9426 30.3916C28.2824 30.7228 28.2841 31.2611 27.9468 31.5943L27.8343 31.6964C27.5855 31.9388 27.5102 32.3049 27.6435 32.6228C27.7776 32.9432 28.0966 33.1516 28.4495 33.1499H28.5968C29.0753 33.1499 29.4633 33.5305 29.4633 33.9999C29.4633 34.4693 29.0753 34.8499 28.5968 34.8499Z" fill="#FFBB01"/>
</svg>

<svg width="52" height="51" fill="none" xmlns="http://www.w3.org/2000/svg"><path d="M50.26 36.346V34h.867a.873.873 0 00.633-.264.891.891 0 00.234-.586l-1.551-28.9C50.295 1.91 48.318.088 45.928.088c-2.39 0-4.367 1.823-4.515 4.162l-1.55 28.9a.892.892 0 00.233.63c.172.153.4.233.633.22h.866v2.346l-1.638 3.222a.836.836 0 000 .765l5.2 10.2a.734.734 0 00.182.246.876.876 0 00.355.195h.476a.87.87 0 00.356-.195.73.73 0 00.182-.247l5.2-10.2a.835.835 0 000-.764l-1.647-3.222zM41.639 32.3l.365-6.8h7.85l.408 6.8h-8.623zm1.508-28.007c0-1.507 1.246-2.73 2.782-2.73 1.537 0 2.782 1.223 2.782 2.73l1.048 19.55h-7.66l.095-1.7h4.827c.479 0 .866-.38.866-.85s-.387-.85-.866-.85h-4.74l.866-16.15zM48.528 34v1.7h-5.2V34h5.2zm-1.733 12.546V40.8h.866c.479 0 .867-.38.867-.85s-.388-.85-.867-.85h-3.466a.858.858 0 00-.867.85c0 .47.388.85.867.85h.867v5.746l-3.363-6.596L43 37.4h5.858l1.3 2.55-3.362 6.596zM29.462 11.05c.48 0 .867-.38.867-.85s-.388-.85-.867-.85H6.932a.858.858 0 00-.867.85v3.4c0 .47.388.85.867.85h22.53c.48 0 .867-.38.867-.85s-.388-.85-.867-.85H7.798v-1.7h21.664zM30.33 18.7c0-.47-.388-.85-.867-.85H10.4a.858.858 0 00-.867.85c0 .47.388.85.867.85h19.064c.479 0 .867-.38.867-.85zM5.199 22.95c0 .47.388.85.866.85H19.93c.479 0 .867-.38.867-.85s-.388-.85-.867-.85H6.065a.858.858 0 00-.866.85zM25.13 22.1a.858.858 0 00-.866.85c0 .47.388.85.867.85h3.465c.479 0 .867-.38.867-.85s-.388-.85-.867-.85h-3.465zM17.33 27.2c0-.47-.387-.85-.866-.85H6.065a.858.858 0 00-.866.85c0 .47.388.85.866.85h10.4c.478 0 .866-.38.866-.85zM16.464 31.45c0-.47-.388-.85-.866-.85H6.065a.858.858 0 00-.866.85c0 .47.388.85.866.85h9.533c.478 0 .866-.38.866-.85zM6.065 34.85a.858.858 0 00-.866.85c0 .47.388.85.866.85h6.065c.479 0 .867-.38.867-.85s-.388-.85-.867-.85H6.065z" fill="#FFBB01"/><path d="M33.796 0H2.6C1.164 0 0 1.142 0 2.55v39.1c0 1.408 1.164 2.55 2.6 2.55H17.33c.479 0 .867-.38.867-.85s-.388-.85-.867-.85H2.6a.858.858 0 01-.867-.85v-34h32.93v34c0 .47-.388.85-.867.85h-2.6a.858.858 0 00-.866.85c0 .47.388.85.866.85h2.6c1.436 0 2.6-1.142 2.6-2.55V2.55c0-1.408-1.164-2.55-2.6-2.55zM1.733 5.95v-3.4c0-.47.388-.85.867-.85h31.196c.479 0 .867.38.867.85v3.4H1.733z" fill="#FFBB01"/><path d="M24.264 31.45c-1.436 0-2.6 1.142-2.6 2.55s1.164 2.55 2.6 2.55c1.435 0 2.599-1.142 2.599-2.55s-1.164-2.55-2.6-2.55zm0 3.4a.858.858 0 01-.867-.85c0-.47.388-.85.867-.85.478 0 .866.38.866.85s-.388.85-.866.85z" fill="#FFBB01"/><path d="M31.197 34a2.544 2.544 0 00-1.387-2.253 2.517 2.517 0 00-.646-2.553 2.636 2.636 0 00-2.604-.634 2.607 2.607 0 00-2.296-1.355c-.962 0-1.845.522-2.296 1.355a2.636 2.636 0 00-2.604.634c-.68.668-.93 1.65-.646 2.553A2.543 2.543 0 0017.337 34c0 .944.53 1.81 1.381 2.252a2.515 2.515 0 00.641 2.55c.17.166.362.306.572.417v10.93a.85.85 0 00.537.783.879.879 0 00.945-.179l2.85-2.804 2.852 2.804c.163.16.385.248.615.247a.737.737 0 00.33-.068.85.85 0 00.537-.782V39.227c.21-.11.403-.25.572-.416a2.515 2.515 0 00.64-2.55A2.544 2.544 0 0031.197 34zm-6.318 12.146a.874.874 0 00-1.23 0l-1.985 1.955v-8.584l.304-.077a2.606 2.606 0 002.296 1.355c.962 0 1.845-.521 2.296-1.355l.304.077V48.1l-1.985-1.955zm3.718-11.296h-.148a.867.867 0 00-.806.527.839.839 0 00.191.926l.104.103a.839.839 0 010 1.198.826.826 0 01-.347.213h-.13a.877.877 0 01-.745-.239l-.104-.102a.88.88 0 00-.947-.186.85.85 0 00-.534.79v.17c0 .47-.389.85-.867.85a.858.858 0 01-.867-.85v-.145a.85.85 0 00-.866-.85.876.876 0 00-.615.247l-.105.102a.876.876 0 01-.745.238h-.13a.817.817 0 01-.346-.213.839.839 0 010-1.198l.113-.102a.838.838 0 00.19-.927.866.866 0 00-.806-.526h-.156a.859.859 0 01-.867-.85c0-.47.389-.85.867-.85h.147a.868.868 0 00.806-.528.84.84 0 00-.19-.926l-.104-.102a.84.84 0 01-.005-1.203.879.879 0 011.226-.004l.105.11c.247.245.62.319.944.187a.85.85 0 00.537-.79v-.17c0-.47.388-.85.867-.85s.867.38.867.85v.144a.85.85 0 00.537.791c.324.13.697.057.944-.187l.104-.102a.88.88 0 011.227-.004.84.84 0 01.004 1.202l-.113.102a.839.839 0 00-.19.927c.134.32.453.529.806.527h.147c.478 0 .866.38.866.85s-.388.85-.866.85z" fill="#FFBB01"/></svg>
